X: 19588
T: Jamesy Gannon's
R: barndance
M: 4/4
K: Gmajor
D3G .B2B2|~A2GA Bd~d2|edge dBGB|~A2AB AGEG|
D3G .B2B2|~A2GA Bd~d2|edge dBGB|1 A2G2 G2GE:|2 A2G2 G2Bd||
.g2ga bgdB|dedB d2Bd|.g2ga bgdB|dedB A2Bd|
.g2ga bgdB|dedB d2ef|ggff eedd|1 ccBB A2Bd:|2 cBAG BcBA||
G3B .d2Bd|cdBc A2BA|G2B2 d2Bd|egfa gedB|
~G2GB d2Bd|cdBc A2BA|G2Bd edBd|1 egaf gedB:|2 egaf .g2z2||

